images/house.svg

<svg width="76" height="72" viewBox="0 0 76 72" fill="none" xmlns="http://www.w3.org/2000/svg">
<path d="M30.6185 65H46.6827V41.2H30.6185V65ZM33.5301 44.1H43.6707V62.1H33.5301V44.1Z" fill="#83B3D3"/>
<path d="M73.8916 39.3L76 37.2L66.0602 27.3V0H52.1044V13.6L38.4498 0L1 37.2L3.10843 39.3L10.9398 31.5V69.1H6.92369V72H71.0803V69.1H65.9598V31.5L73.8916 39.3ZM63.0482 69.1H13.8514V28.5L38.4498 4.1L63.0482 28.5V69.1ZM63.0482 24.4L55.1165 16.5V2.9H63.0482V24.4Z" fill="#83B3D3"/>
<path d="M30.8193 27.1C30.8193 31.4 34.3333 34.8 38.5502 34.8C42.8675 34.8 46.3815 31.3 46.3815 27.1C46.3815 22.8 42.8675 19.4 38.5502 19.4C34.3333 19.4 30.8193 22.8 30.8193 27.1ZM38.6506 22.1C41.3614 22.1 43.6707 24.3 43.6707 27C43.6707 29.7 41.4618 31.9 38.6506 31.9C35.9398 31.9 33.6305 29.7 33.6305 27C33.6305 24.3 35.8394 22.1 38.6506 22.1Z" fill="#83B3D3"/>
<path d="M20.9799 41.2H17.9679V45.1H20.9799V41.2Z" fill="#83B3D3"/>
<path d="M26.9036 41.2H23.8916V45.1H26.9036V41.2Z" fill="#83B3D3"/>
<path d="M20.9799 47.2H17.9679V51.1H20.9799V47.2Z" fill="#83B3D3"/>
<path d="M26.9036 47.2H23.8916V51.1H26.9036V47.2Z" fill="#83B3D3"/>
<path d="M53.008 41.2H49.996V45.1H53.008V41.2Z" fill="#83B3D3"/>
<path d="M58.9317 41.2H55.9197V45.1H58.9317V41.2Z" fill="#83B3D3"/>
<path d="M53.008 47.2H49.996V51.1H53.008V47.2Z" fill="#83B3D3"/>
<path d="M58.9317 47.2H55.9197V51.1H58.9317V47.2Z" fill="#83B3D3"/>
</svg>

<svg xmlns="http://www.w3.org/2000/svg" width="76" height="72" fill="none" viewBox="0 0 76 72"><path fill="#83b3d3" d="M30.619 65h16.064V41.2H30.619zm2.911-20.9h10.14v18H33.53z"/><path fill="#83b3d3" d="M73.892 39.3 76 37.2l-9.94-9.9V0H52.104v13.6L38.45 0 1 37.2l2.108 2.1 7.832-7.8v37.6H6.924V72H71.08v-2.9h-5.12V31.5zM63.048 69.1H13.851V28.5L38.45 4.1l24.598 24.4zm0-44.7-7.931-7.9V2.9h7.931z"/><path fill="#83b3d3" d="M30.82 27.1c0 4.3 3.513 7.7 7.73 7.7 4.318 0 7.832-3.5 7.832-7.7 0-4.3-3.514-7.7-7.832-7.7-4.217 0-7.73 3.4-7.73 7.7m7.83-5c2.711 0 5.02 2.2 5.02 4.9s-2.208 4.9-5.02 4.9c-2.71 0-5.02-2.2-5.02-4.9s2.21-4.9 5.02-4.9M20.98 41.2h-3.012v3.9h3.012zM26.904 41.2h-3.012v3.9h3.012zM20.98 47.2h-3.012v3.9h3.012zM26.904 47.2h-3.012v3.9h3.012zM53.008 41.2h-3.012v3.9h3.012zM58.932 41.2H55.92v3.9h3.012zM53.008 47.2h-3.012v3.9h3.012zM58.932 47.2H55.92v3.9h3.012z"/></svg>
